src/components/DocumentVideo/PaperIdFlowSelector/assets/card-id.svg

<svg width="24" height="24" fill="none" xmlns="http://www.w3.org/2000/svg">
  <path fill-rule="evenodd" clip-rule="evenodd" d="M22 3H2C.95 3 0 3.95 0 5v14c0 1.05.95 2 2 2h20c1.05 0 2-.95 2-2V5c0-1.05-.95-2-2-2zm-8 4V6h8v1h-8zm0 1v1h8V8h-8zm0 3v-1h7v1h-7zm-6 2.91C6 13.91 2 15 2 17v1h12v-1c0-2-4-3.09-6-3.09zM5 9a3 3 0 1 1 6 0 3 3 0 0 1-6 0z" fill="#1E1E24"/>
</svg>

<svg width="24" height="24" viewBox="0 0 24 24" fill="none" xmlns="http://www.w3.org/2000/svg">
<path fill-rule="evenodd" clip-rule="evenodd" d="M22 3H2C0.95 3 0 3.95 0 5V19C0 20.05 0.95 21 2 21H22C23.05 21 24 20.05 24 19V5C24 3.95 23.05 3 22 3ZM14 7V6H22V7H14ZM14 8V9H21.5H22V8H14ZM14 11V10H21V11H14ZM8 13.91C6 13.91 2 15 2 17V18H14V17C14 15 10 13.91 8 13.91ZM5 9C5 7.34315 6.34315 6 8 6C9.65685 6 11 7.34315 11 9C11 10.6569 9.65685 12 8 12C6.34315 12 5 10.6569 5 9Z" fill="#1E1E24"/>
</svg>
